build/category/PinSolid.svg

<svg xmlns="http://www.w3.org/2000/svg" fill="none" viewBox="0 0 24 24" focusable="false"><path d="M0 0H24V24H0z"/><path fill="#74767B" d="M14.4558 2.92095C13.6878 2.15301 12.3726 2.60945 12.2455 3.68801L12.2499 5.79801L7.42489 10.623L5.32334 10.6101C4.24477 10.7373 3.78833 12.0525 4.55627 12.8204L7.41834 15.6825L2.91548 20.1854C2.66164 20.4392 2.66164 20.8508 2.91548 21.1046C3.16932 21.3585 3.58088 21.3585 3.83472 21.1046L8.33758 16.6018L11.1794 19.4435C11.9473 20.2115 13.2626 19.755 13.3897 18.6765L13.3768 16.5749L18.2018 11.7499L20.3118 11.7544C21.3904 11.6272 21.8468 10.312 21.0789 9.54405L14.4558 2.92095Z"/></svg>

<svg xmlns="http://www.w3.org/2000/svg" fill="none" viewBox="0 0 24 24" focusable="false"><path fill="#74767B" d="M14.45 2.92c-.77-.77-2.08-.32-2.21.76l.01 2.11-4.83 4.83-2.1-.01c-1.08.12-1.54 1.44-.77 2.21l2.86 2.86-4.5 4.5c-.25.25-.25.67 0 .92s.67.25.92 0l4.5-4.5 2.84 2.84c.77.77 2.09.31 2.21-.77l-.01-2.1 4.83-4.83 2.11.01c1.08-.13 1.53-1.44.76-2.21z"/></svg>
